src/assets/icons/step-1.svg

<?xml version="1.0" encoding="UTF-8"?>
<svg width="40px" height="40px" viewBox="0 0 40 40" version="1.1" xmlns="http://www.w3.org/2000/svg" xmlns:xlink="http://www.w3.org/1999/xlink">
    <title>椭圆形</title>
    <g id="WEB" stroke="none" stroke-width="1" fill="none" fill-rule="evenodd" opacity="0.5">
        <g id="助记词创建钱包3" transform="translate(-617.000000, -352.000000)" fill-rule="nonzero">
            <g id="编组" transform="translate(617.000000, 352.000000)">
                <circle id="椭圆形" stroke="#6E7585" stroke-width="2" cx="20" cy="20" r="19"></circle>
                <path d="M28.6066017,14.3933983 C28.997126,14.7839226 28.997126,15.4170876 28.6066017,15.8076118 L18.7071068,25.7071068 L18.7071068,25.7071068 C18.5569051,25.8573084 18.3708099,25.9497402 18.1764315,25.9844021 L18.0590314,25.9982669 L18.0590314,25.9982669 L17.9409686,25.9982669 C17.705064,25.9844021 17.4731352,25.8873488 17.2928932,25.7071068 L11.636039,20.0502525 C11.2455147,19.6597282 11.2455147,19.0265633 11.636039,18.636039 C12.0265633,18.2455147 12.6597282,18.2455147 13.0502525,18.636039 L17.9991458,23.5855051 L27.1923882,14.3933983 C27.5829124,14.002874 28.2160774,14.002874 28.6066017,14.3933983 Z" id="形状结合" fill="#6E7585"></path>
            </g>
        </g>
    </g>
</svg>

<svg width="40" height="40" xmlns="http://www.w3.org/2000/svg"><g fill-rule="nonzero" fill="none" opacity=".5"><circle stroke="#6e7585" stroke-width="2" cx="20" cy="20" r="19"/><path d="M28.607 14.393a1 1 0 0 1 0 1.415l-9.9 9.9a.995.995 0 0 1-.53.276l-.118.014h-.118a.996.996 0 0 1-.648-.29l-5.657-5.658a1 1 0 1 1 1.414-1.414l4.95 4.95 9.192-9.193a1 1 0 0 1 1.415 0z" fill="#6e7585"/></g></svg>
